X:1
T:New Delhi, 88.86
T:New Delhi, 88.86
T:James McGranahan, 1887
T:Public Domain Courtesy of the Cyber Hymnal™
C:James McGranahan, 1887
Z:Public Domain
Z:Courtesy of the Cyber Hymnal™
%%score ( 1 2 ) 3
L:1/8
Q:1/4=86
M:3/4
K:F
V:1 treble 
V:2 treble 
V:3 bass 
V:1
 C[CF] [CG] | [FA]3 [Fc] [EB][FA] | [EG]3 C [CE][CF] | [EG]3 [GB] [FA][CG] | [CF]3 C [CF][CG] | %5
 [FA]3 [FA] [FB][Fc] | [Fd]4 [Bd]2 | [Ac]3 [FA] [EB][EG] | F3 |] %9
V:2
 C x2 | x6 | x3 C x2 | x6 | x3 C x2 | x6 | x6 | x6 | F3 |] %9
V:3
 [F,A,][F,A,] [F,B,] | [F,C]3 [A,C] [G,C][F,C] | [C,C]3 [C,E,] [C,G,][C,A,] | %3
 [C,B,]3 [C,E,] [C,F,][C,B,] | [F,A,]3 [F,A,] [F,A,][F,B,] | [F,C]3 [_E,C] [D,B,][C,A,] | %6
 [B,,B,]4 [B,,F,]2 | [C,F,]3 [C,F,] [C,G,][C,B,] | [F,,F,A,]3 |] %9

